small-circle-icons/small-circle-icons_book.svg

<svg xmlns="http://www.w3.org/2000/svg" xmlns:xlink="http://www.w3.org/1999/xlink" viewBox="0 0 66 66">
    <defs>
        <circle id="a" cx="33" cy="33" r="31.4"/>
    </defs>
    <use xlink:href="#a" overflow="visible" fill-rule="evenodd" clip-rule="evenodd" fill="none" stroke="#091F2F" stroke-width="3" stroke-miterlimit="10"/>
    <path fill="#091F2F" d="M44.6 52.8l-24.1-1.3-.9-33.3 4.5-3.7h24.2v30.8l-3.7 7.5zm-21.9-3.5l20.5 1.1 2.9-5.7v-28H24.9l-3 2.4.8 30.2z"/>
    <path fill="#FFF" d="M20.8 19.5h22.7v31.8H20.8z"/>
    <path fill="#091F2F" d="M44.6 52.4h-25V18.3h25v34.1zm-22.7-2.3h20.4V20.6H21.9v29.5z"/>
    <g>
        <path fill="#091F2F" d="M40.5 32.4H24.1v-9h16.4v9zm-14.2-2.2h11.9v-4.4H26.3v4.4z"/>
    </g>
</svg>

<?xml version="1.0" encoding="utf-8"?>
<!-- Generator: Adobe Illustrator 18.1.1, SVG Export Plug-In . SVG Version: 6.00 Build 0)  -->
<svg version="1.1" id="Layer_1" xmlns="http://www.w3.org/2000/svg" xmlns:xlink="http://www.w3.org/1999/xlink" x="0px" y="0px"
	 viewBox="0 0 66 66" enable-background="new 0 0 66 66" xml:space="preserve">
<g>
	<defs>
		<circle id="SVGID_91_" cx="33" cy="33" r="31.4"/>
	</defs>
	<clipPath id="SVGID_2_">
		<use xlink:href="#SVGID_91_"  overflow="visible"/>
	</clipPath>
	
		<use xlink:href="#SVGID_91_"  overflow="visible" fill-rule="evenodd" clip-rule="evenodd" fill="none" stroke="#091F2F" stroke-width="3" stroke-miterlimit="10"/>
</g>
<g>
</g>
<g>
	<path fill="#091F2F" d="M44.6,52.8l-24.1-1.3l-0.9-33.3l4.5-3.7h24.2v30.8L44.6,52.8z M22.7,49.3l20.5,1.1l2.9-5.7v-28H24.9l-3,2.4
		L22.7,49.3z"/>
</g>
<g>
	<rect x="20.8" y="19.5" fill="#FFFFFF" width="22.7" height="31.8"/>
	<path fill="#091F2F" d="M44.6,52.4h-25V18.3h25V52.4z M21.9,50.1h20.4V20.6H21.9V50.1z"/>
</g>
<g>
	<path fill="#091F2F" d="M40.5,32.4H24.1v-9h16.4V32.4z M26.3,30.2h11.9v-4.4H26.3V30.2z"/>
</g>
</svg>
